X: 1
T:Christy Campbell
R:strathspey
C:traditional
O:Cape Breton
N:Tune books, related recordings
N:..... Cranford Publications <http://www.cranfordpub.com>
D:Jerry Holland, Crystal Clear
B: The Dungreen Collection
Z:This abc transcription is for personal use only,
Z:provided this notice remains attached.
Z:Paul Stewart Cranford <psc@cranfordpub.com>
Q:288
L:1/8
M:C
K:A
A>GF<D =G>FE>C|A,>f (3eec B>AB<c|A>GF<D =G>FE>C|E<FG<E A2 (3AAB|!
A>GF<D =G>FE>C|A,>f (3eec B2 (3Bce|f<be>c B>AB<c|1A<FG<E E<A (3AAB:|2A<FG<E E<A|| !
(3eef|:e>A (3ccd e>fe>d|c>A A/A/A f>ef<b|A,2 (3eec e>fe>c|d<Bc<A F2 (3FAA|!
A,>A (3eec e>fe>d|c>A A/A/A/A/ f>ef>g|(3aee (3cee (3aee (3cee|1d<Bc>A B>a (3ggf:|2d<Bc>A B>dc<B|]!
